packages/core/src/svgs/valor.svg

<svg width="24" height="24" viewBox="0 0 24 24" fill="none" xmlns="http://www.w3.org/2000/svg">
<g clip-path="url(#clip0_31_20315)">
<path d="M0 0H24V24H0V0Z" fill="#D8191E"/>
<path d="M17.9969 6.92337L17.2495 8.53994C17.2446 8.54957 17.237 8.5576 17.2276 8.56308C17.218 8.56861 17.207 8.57142 17.1959 8.57123H15.0569C15.0476 8.5715 15.0383 8.56954 15.0299 8.56551C15.0215 8.56149 15.0141 8.55551 15.0085 8.54808C15.0035 8.54126 15.0006 8.53309 15.0002 8.52462C14.9998 8.51616 15.002 8.50777 15.0063 8.50051L15.0085 8.49666L15.7842 6.88823C15.789 6.87861 15.7964 6.87057 15.8056 6.86508C15.8151 6.85958 15.8259 6.85676 15.8369 6.85694H17.9433C17.9528 6.85694 17.9618 6.85866 17.9699 6.86251C17.9785 6.8668 17.9853 6.87194 17.9913 6.87923C17.9959 6.88561 17.9988 6.89302 17.9998 6.90081C18.0008 6.90859 17.9998 6.91606 17.9969 6.92337ZM16.2145 10.7141H9.69421L8.99563 8.9998H12.8468C12.8708 8.9998 12.8918 8.97151 12.8999 8.94837L13.5942 6.9388C13.5976 6.92981 13.5988 6.92013 13.5977 6.91059C13.5966 6.90104 13.5932 6.8919 13.5878 6.88394C13.5828 6.87582 13.5759 6.86908 13.5677 6.86436C13.5594 6.85964 13.5501 6.85708 13.5406 6.85694H6.05735C6.0478 6.85709 6.03845 6.85969 6.03019 6.86449C6.02194 6.8693 6.01505 6.87614 6.01021 6.88437C6.00489 6.89228 6.00153 6.90134 6.00041 6.91081C5.9993 6.92027 6.00045 6.92987 6.00378 6.9388L8.22292 12.8188C8.22736 12.8294 8.23478 12.8386 8.24428 12.8451C8.25378 12.8517 8.26496 12.8553 8.27649 12.8557H13.2951L11.9091 16.7651L11.1513 14.6119C11.1477 14.6007 11.1406 14.5909 11.1311 14.584C11.1215 14.5771 11.11 14.5733 11.0982 14.5734L8.99563 14.5712C8.98633 14.571 8.97713 14.5733 8.969 14.5778C8.96086 14.5823 8.95408 14.5889 8.94935 14.5969C8.94402 14.6052 8.9407 14.6145 8.93966 14.6243C8.93861 14.6341 8.93988 14.6439 8.94335 14.6531L10.4678 18.8179C10.4716 18.8291 10.4788 18.8389 10.4883 18.8458C10.4978 18.8527 10.5092 18.8565 10.5209 18.8565H13.2852C13.2969 18.8566 13.3083 18.853 13.3178 18.8462C13.3272 18.8395 13.3343 18.8301 13.3383 18.8192L16.2676 10.8109C16.2745 10.7929 16.2779 10.7617 16.2676 10.7458C16.2612 10.7364 16.2389 10.7141 16.2145 10.7141Z" fill="white"/>
</g>
<defs>
<clipPath id="clip0_31_20315">
<rect width="24" height="24" fill="white"/>
</clipPath>
</defs>
</svg>

<svg xmlns="http://www.w3.org/2000/svg" width="24" height="24" fill="none" viewBox="0 0 24 24"><g clip-path="url(#a)"><path fill="#D8191E" d="M0 0h24v24H0z"/><path fill="#fff" d="M17.997 6.923 17.25 8.54a.06.06 0 0 1-.022.023.1.1 0 0 1-.032.008h-2.14a.06.06 0 0 1-.047-.023.04.04 0 0 1-.003-.047l.002-.004.776-1.609a.06.06 0 0 1 .053-.031h2.106a.06.06 0 0 1 .048.022.05.05 0 0 1 .006.044m-1.782 3.791h-6.52L8.994 9h3.852c.024 0 .045-.028.053-.052l.694-2.01a.06.06 0 0 0-.006-.054.06.06 0 0 0-.047-.027H6.057a.06.06 0 0 0-.047.027.06.06 0 0 0-.006.055l2.219 5.88a.06.06 0 0 0 .053.037h5.02l-1.387 3.91-.758-2.154a.06.06 0 0 0-.053-.039l-2.102-.002a.05.05 0 0 0-.047.026.06.06 0 0 0-.006.056l1.525 4.165a.06.06 0 0 0 .02.028q.015.01.033.01h2.764a.06.06 0 0 0 .033-.01.06.06 0 0 0 .02-.027l2.93-8.008c.006-.018.01-.05 0-.065-.007-.01-.03-.032-.053-.032"/></g><defs><clipPath id="a"><path fill="#fff" d="M0 0h24v24H0z"/></clipPath></defs></svg>
